X: 1
T: MacNamara's Band
C: words: John J. Stamford
C: music: Shamus O'Connor
R: Two-step
S: http://thisoldtractor.com/Macnamaras_Band.abc 2017
B: Joe Buchanan's Scottish Tome - Page 428.3
Z: Carl Allison
L: 1/8
M: 6/8
K: G
d |\
"G"B2B B2B | B2B B2B | B2B AG2 | D3- D2B | "D7"c2c c2c | "G"B2B B2B | "A7"A2G F2G | "D7"A3 d3 |
"G"B2B B2B | B2B B2B | B2B AG2 | D3- D2B | "Am"c2c B2"Cm"A | d2"G"B G2"A7"E | "D7"D2c B2A | G3 :|
D E2F |\
"G"G3- G3- | G2e d2B | "A7"A3- A3 | E3 A2G | "D7"F2d ^c2d | e2d =cBA | B3- B3- | B2D E2F |
"G"G3- G3- | G2e d2B | "Am"A3- A3 | E3 A2G | "D7"F2d ^c2d | e2d c2A | "G"G3- G3- | G3- G3 |]
